X:531
T:Meg Mh\'or na Lurachan
R:Strathspey
B:The Athole Collection
M:C
L:1/8
K:E Minor
B|G<E E>F G>A B<e|d<B B>A G>A B<e|G<E E>F G>AB>e|
d<B B>G A2A:|
B|e>fg>e d>eB>e|d<B g>e d>e B<g|e>fg>e d<eB<g|d<B B>G A2 A>B|
e>fg>e d>eB>e|d<B g>e d>eB>g|e>Bg>B a>Bg>a|g>e d<B A2A||

